src/view-carousel.svg

<svg xmlns="http://www.w3.org/2000/svg" viewBox="0 0 20 20"><path d="M16 16v2H4v-2H0V4h4V2h12v2h4v12h-4zM14 5.5V4H6v12h8V5.5zm2 .5v8h2V6h-2zM4 6H2v8h2V6z"/></svg>

<?xml version="1.0" encoding="UTF-8" standalone="no"?>
<svg width="20px" height="20px" viewBox="0 0 20 20" version="1.1" xmlns="http://www.w3.org/2000/svg" xmlns:xlink="http://www.w3.org/1999/xlink">
    <!-- Generator: Sketch 3.7.2 (28276) - http://www.bohemiancoding.com/sketch -->
    <title>view-carousel</title>
    <desc>Created with Sketch.</desc>
    <defs></defs>
    <g id="Page-1" stroke="none" stroke-width="1" fill="none" fill-rule="evenodd">
        <g id="view-carousel" fill="#000000">
            <path d="M14,5.5 L14,4 L6,4 L6,5.5 L6,14.5 L6,16 L14,16 L14,14.5 L14,5.5 L14,5.5 Z M16,6 L18,6 L18,14 L16,14 L16,6 L16,6 Z M4,6 L2,6 L2,14 L4,14 L4,6 L4,6 Z M16,16 L16,18 L4,18 L4,16 L0,16 L0,4 L4,4 L4,2 L16,2 L16,4 L20,4 L20,16 L16,16 L16,16 Z" id="Combined-Shape"></path>
        </g>
    </g>
</svg>
